X:1
T:O Luaidh - Oh My Dearest Dear  "CYMRU"
M:6/8
L:1/8
Q:80
C:Arr. J.M. Allan
S:Slow Air
K:HP
[| {gef}e2{A}e{g}A2{GAG}A | \
{gef}e3/2{g}d/2e{gfg}f3/2e/2d | \
{gcd}c2{e}c{gBd}B2{e}B |
{Gdc}d2e{gfg}f3/2e/2d | | \
{gef}e3/2f/2g{ag}a3 | \
{g}afa{ef}e2d |
{gcd}c3/2{e}B/2{d}c{g}A2{d}c | \
{gef}e2{A}e{gfg}fec | \
{gBd}B3{G}A3|] [ |
{g}e3/2f/2{g}e{g}A2{GAG}A | \
{g}f3/2g/2{a}f{ag}a3/2g/2{a}f | \
{g}e3/2f/2{g}e{g}A2{GAG}A |
{Gdc}d2e{gfg}f3/2e/2d | | \
{gef}e3/2f/2g{ag}a3 | \
{g}afa{ef}e2d |
{gcd}c3/2{e}B/2{d}c{g}A2{d}c | \
{gef}e2{A}e{gfg}fec | \
{gBd}B3{G}A3|]
